calendar-import.svg

<svg  viewBox="0 0 24 24" fill="currentColor"><path  d="M12 12L8 16H11V22H13V16H16M19 3H18V1H16V3H8V1H6V3H5C3.9 3 3 3.9 3 5V19C3 20.11 3.9 21 5 21H9V19H5V8H19V19H15V21H19C20.11 21 21 20.11 21 19V5C21 3.9 20.11 3 19 3Z"/></svg>

<svg fill="currentColor" viewBox="0 0 24 24"><path d="m12 12-4 4h3v6h2v-6h3m3-13h-1V1h-2v2H8V1H6v2H5c-1.1 0-2 .9-2 2v14a2 2 0 0 0 2 2h4v-2H5V8h14v11h-4v2h4c1.11 0 2-.89 2-2V5a2 2 0 0 0-2-2"/></svg>
